icons/svg/sign-out_20.svg

<?xml version="1.0" encoding="UTF-8"?>
<svg width="20px" height="20px" viewBox="0 0 20 20" version="1.1" xmlns="http://www.w3.org/2000/svg" xmlns:xlink="http://www.w3.org/1999/xlink">
    <!-- Generator: Sketch 58 (84663) - https://sketch.com -->
    <title>sign-out_20</title>
    <desc>Created with Sketch.</desc>
    <g id="New-Icon" stroke="none" stroke-width="1" fill="none" fill-rule="evenodd">
        <g id="sign-out_20" fill="#171B1F">
            <g id="fill">
                <path d="M9.9993,0.0002 C12.6703,0.0002 15.1813,1.0402 17.0703,2.9292 C20.9693,6.8282 20.9693,13.1722 17.0703,17.0712 C15.1813,18.9602 12.6703,20.0002 9.9993,20.0002 C7.3283,20.0002 4.8173,18.9602 2.9283,17.0712 C2.7333,16.8752 2.7333,16.5592 2.9283,16.3642 C3.1243,16.1682 3.4403,16.1682 3.6353,16.3642 C5.3353,18.0642 7.5953,19.0002 9.9993,19.0002 C12.4033,19.0002 14.6633,18.0642 16.3633,16.3642 C19.8723,12.8552 19.8723,7.1452 16.3633,3.6362 C14.6633,1.9362 12.4033,1.0002 9.9993,1.0002 C7.5953,1.0002 5.3353,1.9362 3.6353,3.6362 C3.4403,3.8312 3.1243,3.8312 2.9283,3.6362 C2.7333,3.4412 2.7333,3.1242 2.9283,2.9292 C4.8173,1.0402 7.3283,0.0002 9.9993,0.0002 Z M4.0574,5.735 C4.2524,5.54 4.5694,5.54 4.7644,5.735 C4.9594,5.93 4.9594,6.247 4.7644,6.442 L4.7644,6.442 L1.7064,9.5 L12.2344,9.5 C12.5114,9.5 12.7344,9.724 12.7344,10 C12.7344,10.276 12.5114,10.5 12.2344,10.5 L12.2344,10.5 L1.7064,10.5 L4.7644,13.558 C4.9594,13.753 4.9594,14.07 4.7644,14.265 C4.6674,14.363 4.5394,14.412 4.4114,14.412 C4.2834,14.412 4.1554,14.363 4.0574,14.265 L4.0574,14.265 L0.1464,10.354 C0.1004,10.308 0.0634,10.252 0.0384,10.191 C-0.0126,10.069 -0.0126,9.931 0.0384,9.809 C0.0634,9.748 0.1004,9.692 0.1464,9.646 L0.1464,9.646 Z"></path>
            </g>
        </g>
    </g>
</svg>

<svg width="20" height="20" xmlns="http://www.w3.org/2000/svg"><path d="M10 0a9.934 9.934 0 017.07 2.93c3.9 3.898 3.9 10.242 0 14.141a9.934 9.934 0 01-7.07 2.93 9.934 9.934 0 01-7.072-2.93.5.5 0 01.707-.707A8.94 8.94 0 0010 19a8.94 8.94 0 006.364-2.636c3.51-3.509 3.51-9.219 0-12.728A8.94 8.94 0 0010 1a8.94 8.94 0 00-6.364 2.636.5.5 0 01-.707-.707A9.934 9.934 0 0110 0zM4.056 5.735a.5.5 0 01.707.707L1.706 9.5h10.528a.5.5 0 110 1H1.706l3.058 3.058a.5.5 0 01-.707.707l-3.91-3.911a.499.499 0 01-.109-.545.499.499 0 01.108-.163z" fill="#171B1F" fill-rule="evenodd"/></svg>
